Newaita-dark/actions/32/document-open-remote.svg

<svg height="32" viewBox="0 0 32 32" width="32" xmlns="http://www.w3.org/2000/svg"><g fill="#e0e0e0"><path d="m5.292969 22.742188h5.953125v1.324218h-5.953125zm0 0"/><path d="m20.507812 22.742188h5.953126v1.324218h-5.953126zm0 0"/><path d="m7.933594 2.894531c-1.46875 0-2.648438 1.183594-2.648438 2.648438v15.875h2.648438v-14.554688c0-.730469.589844-1.320312 1.320312-1.320312h5.292969v-.007813h4.746094l4.523437 4.523438v4.746094h-.007812v6.613281h2.644531v-6.613281h-.003906v-5.292969c0-.351563-.140625-.683594-.386719-.929688l-5.292969-5.292969c-.246093-.246093-.582031-.386718-.929687-.386718h-5.292969v-.007813zm-2.648438 22.492188v1.324219c0 1.464843 1.179688 2.644531 2.648438 2.644531h1.328125v-2.644531h-.007813c-.730468 0-1.320312-.589844-1.320312-1.324219zm18.523438 0c0 .730469-.585938 1.320312-1.316406 1.324219v2.644531h1.316406c1.464844 0 2.644531-1.179688 2.644531-2.644531v-1.324219zm0 0"/><path d="m15.875 17.449219c-3.296875 0-5.953125 2.65625-5.953125 5.953125 0 3.300781 2.65625 5.953125 5.953125 5.953125 3.300781 0 5.957031-2.652344 5.957031-5.953125 0-3.296875-2.65625-5.953125-5.957031-5.953125zm0 2.644531c1.832031 0 3.308594 1.476562 3.308594 3.308594 0 1.832031-1.476563 3.308594-3.308594 3.308594s-3.304688-1.476563-3.304688-3.308594c0-1.832032 1.472657-3.308594 3.304688-3.308594zm0 0"/></g></svg>

<svg xmlns="http://www.w3.org/2000/svg" xmlns:xlink="http://www.w3.org/1999/xlink" width="32px" height="32px" viewBox="0 0 32 32" version="1.1">
<g id="surface1">
     <defs>
  <style id="current-color-scheme" type="text/css">
   .ColorScheme-Text { color:#eeeeee; } .ColorScheme-Highlight { color:#424242; }
  </style>
 </defs>
<path style="fill:currentColor" class="ColorScheme-Text" d="M 5.292969 22.742188 L 11.246094 22.742188 L 11.246094 24.066406 L 5.292969 24.066406 Z M 5.292969 22.742188 "/>
     <defs>
  <style id="current-color-scheme" type="text/css">
   .ColorScheme-Text { color:#eeeeee; } .ColorScheme-Highlight { color:#424242; }
  </style>
 </defs>
<path style="fill:currentColor" class="ColorScheme-Text" d="M 20.507812 22.742188 L 26.460938 22.742188 L 26.460938 24.066406 L 20.507812 24.066406 Z M 20.507812 22.742188 "/>
     <defs>
  <style id="current-color-scheme" type="text/css">
   .ColorScheme-Text { color:#eeeeee; } .ColorScheme-Highlight { color:#424242; }
  </style>
 </defs>
<path style="fill:currentColor" class="ColorScheme-Text" d="M 7.933594 2.894531 C 6.464844 2.894531 5.285156 4.078125 5.285156 5.542969 L 5.285156 21.417969 L 7.933594 21.417969 L 7.933594 6.863281 C 7.933594 6.132812 8.523438 5.542969 9.253906 5.542969 L 14.546875 5.542969 L 14.546875 5.535156 L 19.292969 5.535156 L 23.816406 10.058594 L 23.816406 14.804688 L 23.808594 14.804688 L 23.808594 21.417969 L 26.453125 21.417969 L 26.453125 14.804688 L 26.449219 14.804688 L 26.449219 9.511719 C 26.449219 9.160156 26.308594 8.828125 26.0625 8.582031 L 20.769531 3.289062 C 20.523438 3.042969 20.1875 2.902344 19.839844 2.902344 L 14.546875 2.902344 L 14.546875 2.894531 Z M 5.285156 25.386719 L 5.285156 26.710938 C 5.285156 28.175781 6.464844 29.355469 7.933594 29.355469 L 9.261719 29.355469 L 9.261719 26.710938 L 9.253906 26.710938 C 8.523438 26.710938 7.933594 26.121094 7.933594 25.386719 Z M 23.808594 25.386719 C 23.808594 26.117188 23.222656 26.707031 22.492188 26.710938 L 22.492188 29.355469 L 23.808594 29.355469 C 25.273438 29.355469 26.453125 28.175781 26.453125 26.710938 L 26.453125 25.386719 Z M 23.808594 25.386719 "/>
     <defs>
  <style id="current-color-scheme" type="text/css">
   .ColorScheme-Text { color:#eeeeee; } .ColorScheme-Highlight { color:#424242; }
  </style>
 </defs>
<path style="fill:currentColor" class="ColorScheme-Text" d="M 15.875 17.449219 C 12.578125 17.449219 9.921875 20.105469 9.921875 23.402344 C 9.921875 26.703125 12.578125 29.355469 15.875 29.355469 C 19.175781 29.355469 21.832031 26.703125 21.832031 23.402344 C 21.832031 20.105469 19.175781 17.449219 15.875 17.449219 Z M 15.875 20.09375 C 17.707031 20.09375 19.183594 21.570312 19.183594 23.402344 C 19.183594 25.234375 17.707031 26.710938 15.875 26.710938 C 14.042969 26.710938 12.570312 25.234375 12.570312 23.402344 C 12.570312 21.570312 14.042969 20.09375 15.875 20.09375 Z M 15.875 20.09375 "/>
</g>
</svg>
